images/huawei.svg

<svg fill="none" height="81" viewBox="0 0 80 81" width="80" xmlns="http://www.w3.org/2000/svg"><path d="m34.4403 47.0289s.1269-.1015.0761-.2791c-9.4159-20.5831-22.2582-36.1385-22.2582-36.1385s-7.00227 6.647-6.49974 13.2966c.27156 5.0506 4.04809 8.02 4.04809 8.02 6.10645 5.9135 20.85215 13.4767 24.30375 15.1772 0 0 .2285 0 .33-.0762zm-2.2842 5.0253c-.1015-.1777-.33-.1777-.33-.1777l-24.57277.8122c2.66997 4.7714 7.16217 8.4515 11.83207 7.3855 3.2487-.8121 10.5327-5.9389 12.9438-7.6647.203-.1777.1269-.3553.1269-.3553zm.3553-2.1573c.1269-.1777-.1015-.3554-.1015-.3554-10.7865-7.284-31.704581-18.5273-31.704581-18.5273-1.906029 5.9389.654801 10.7103.654801 10.7103 2.6725 5.5836 7.76371 7.2841 7.76371 7.2841 2.34767.9898 4.68257 1.0659 4.68257 1.0659.3807.1015 14.6442 0 18.4512 0 .1523 0 .2538-.1776.2538-.1776zm9.822-4.8476c.1777.0762.3553-.1776.3553-.1776 2.335-3.4263 12.9438-19.1619 15.1011-28.7808 0 0 1.1675-4.6699 0-7.81959 0 0-1.5228-5.93382-8.0962-7.553059 0 0-1.8781-.449224-3.8578-.718251 0 0-7.284 9.35249-3.7816 44.7701h.0762c0 .2792.203.2792.203.2792zm5.7359 6.8272s-.1777 0-.2538.1777c0 0 0 .2791.0761.3553 2.335 1.7258 9.5429 6.6749 12.9438 7.6647 0 0 6.3957 2.1573 11.8778-7.284zm-2.5126-4.8476s.1776.0762.3553 0c3.5024-1.7004 18.172-9.1875 24.2885-15.101 0 0 3.7816-3.071 4.0354-8.0962.3807-6.8272-6.4718-13.2204-6.4718-13.2204s-12.8423 15.4538-22.2836 36.0623h.0762s-.1777.1777 0 .3553zm33.6283-16.0147c-1.5228.8376-3.0963 1.599-4.5684 2.538-1.9288 1.0152-3.8069 2.0812-5.7104 3.1471-3.2233 1.802-6.4211 3.6547-9.5936 5.5328-1.2183.6092-2.335 1.3959-3.5278 2.0812-.6345.4061-2.7918 1.7766-3.274 1.9542-.7868.6599-1.7513 1.0406-2.538 1.6751-.8629.3807-1.5482 1.0914-2.3604 1.5228-.4568.4315.1269.6599.533.533h19.0857c3.1979-.5076 6.2942-1.8781 8.553-4.2385.9137-.939 1.7005-2.0303 2.3603-3.1724.6599-1.1168 1.1168-2.3604 1.3959-3.604.1777-.7106.2792-1.4466.3807-2.1827 0-.7867.1777-1.5481 0-2.3349.0254-.5584-.0507-1.1167-.203-1.6497-.1269-.6091-.2284-1.3451-.5076-1.802zm-41.5722 14.0351c-.1777.0762-.3554-.1776-.3554-.1776-2.3349-3.4263-12.9183-19.1619-15.0756-28.7808 0 0-1.1675-4.6699 0-7.81959 0 0 1.5228-5.93382 8.0708-7.553059 0 0 1.8781-.449224 3.8577-.718251 0 0 7.2841 9.35249 3.7816 44.7701h-.0761c0 .2792-.203.2792-.203.2792zm42.3844 34.8974v-12.8676h-3.0456v12.8676zm-13.7559-7.6648h8.0962v2.2588h-8.0962c0 2.335.9898 3.1472 3.3247 3.1472h4.7715v2.2588h-4.9491c-1.6243 0-2.9695-.1016-4.3146-1.0914-1.4466-1.0659-2.1573-2.7918-2.1573-5.1267 0-4.4922 2.0558-6.6495 6.5734-6.6495h4.8476v2.2588h-4.7715c-2.1572 0-3.2232.9898-3.3247 2.944zm-22.4866-5.2028 3.2486 9.8981 2.6903-9.8981h3.5024l3.071 9.8981 3.0456-9.8981h2.9694l-4.3146 12.8676h-3.6039l-2.9695-9.619-2.5887 9.619h-3.5278l-4.6699-12.8676zm-7.2587 0 5.9136 12.8676h-3.2233l-1.269-3.071h-6.0658l-1.2436 3.071h-3.0963l5.8881-12.8676zm-3.7054 7.5632h4.1369l-2.1065-4.9491zm-15.0503.1776c0 2.2335.7106 3.2233 3.1217 3.2233 2.4365 0 3.1471-.9898 3.1471-3.2233v-7.7408h2.9187v7.817c0 1.6243-.203 2.7918-.8121 3.4262-1.1421 1.2437-2.8172 1.802-5.2537 1.802-2.4111 0-4.0861-.5583-5.2282-1.802-.6599-.7106-.8122-1.8019-.8122-3.4262v-7.817h2.9187zm-8.24846-2.538v-5.2028h2.91866v12.8676h-2.91866v-5.3044h-6.52771v5.3044h-2.933916v-12.8676h2.933916v5.2028z" fill="#fff"/></svg>

<svg width="80" height="81" viewBox="0 0 80 81" fill="none" xmlns="http://www.w3.org/2000/svg">
<path d="M34.4403 47.0289C34.4403 47.0289 34.5672 46.9274 34.5164 46.7498C25.1005 26.1667 12.2582 10.6113 12.2582 10.6113C12.2582 10.6113 5.25593 17.2583 5.75846 23.9079C6.03002 28.9585 9.80655 31.9279 9.80655 31.9279C15.913 37.8414 30.6587 45.4046 34.1103 47.1051C34.1103 47.1051 34.3388 47.1051 34.4403 47.0289ZM32.1561 52.0542C32.0546 51.8765 31.8261 51.8765 31.8261 51.8765L7.25333 52.6887C9.9233 57.4601 14.4155 61.1402 19.0854 60.0742C22.3341 59.2621 29.6181 54.1353 32.0292 52.4095C32.2322 52.2318 32.1561 52.0542 32.1561 52.0542ZM32.5114 49.8969C32.6383 49.7192 32.4099 49.5415 32.4099 49.5415C21.6234 42.2575 0.705319 31.0142 0.705319 31.0142C-1.20071 36.9531 1.36012 41.7245 1.36012 41.7245C4.03262 47.3081 9.12383 49.0086 9.12383 49.0086C11.4715 49.9984 13.8064 50.0745 13.8064 50.0745C14.1871 50.176 28.4506 50.0745 32.2576 50.0745C32.4099 50.0745 32.5114 49.8969 32.5114 49.8969ZM42.3334 45.0493C42.5111 45.1255 42.6887 44.8717 42.6887 44.8717C45.0237 41.4454 55.6325 25.7098 57.7898 16.0909C57.7898 16.0909 58.9573 11.421 57.7898 8.27131C57.7898 8.27131 56.267 2.33749 49.6936 0.718251C49.6936 0.718251 47.8155 0.269027 45.8358 0C45.8358 0 38.5518 9.35249 42.0542 44.7701H42.1304C42.1304 45.0493 42.3334 45.0493 42.3334 45.0493ZM48.0693 51.8765C48.0693 51.8765 47.8916 51.8765 47.8155 52.0542C47.8155 52.0542 47.8155 52.3333 47.8916 52.4095C50.2266 54.1353 57.4345 59.0844 60.8354 60.0742C60.8354 60.0742 67.2311 62.2315 72.7132 52.7902L48.0693 51.8765ZM45.5567 47.0289C45.5567 47.0289 45.7343 47.1051 45.912 47.0289C49.4144 45.3285 64.084 37.8414 70.2005 31.9279C70.2005 31.9279 73.9821 28.8569 74.2359 23.8317C74.6166 17.0045 67.7641 10.6113 67.7641 10.6113C67.7641 10.6113 54.9218 26.0651 45.4805 46.6736H45.5567C45.5567 46.6736 45.379 46.8513 45.5567 47.0289ZM79.185 31.0142C77.6622 31.8518 76.0887 32.6132 74.6166 33.5522C72.6878 34.5674 70.8097 35.6334 68.9062 36.6993C65.6829 38.5013 62.4851 40.354 59.3126 42.2321C58.0943 42.8413 56.9776 43.628 55.7848 44.3133C55.1503 44.7194 52.993 46.0899 52.5108 46.2675C51.724 46.9274 50.7595 47.3081 49.9728 47.9426C49.1099 48.3233 48.4246 49.034 47.6124 49.4654C47.1556 49.8969 47.7393 50.1253 48.1454 49.9984H67.2311C70.429 49.4908 73.5253 48.1203 75.7841 45.7599C76.6978 44.8209 77.4846 43.7296 78.1444 42.5875C78.8043 41.4707 79.2612 40.2271 79.5403 38.9835C79.718 38.2729 79.8195 37.5369 79.921 36.8008C79.921 36.0141 80.0987 35.2527 79.921 34.4659C79.9464 33.9075 79.8703 33.3492 79.718 32.8162C79.5911 32.2071 79.4896 31.4711 79.2104 31.0142H79.185ZM37.6128 45.0493C37.4351 45.1255 37.2574 44.8717 37.2574 44.8717C34.9225 41.4454 24.3391 25.7098 22.1818 16.0909C22.1818 16.0909 21.0143 11.421 22.1818 8.27131C22.1818 8.27131 23.7046 2.33749 30.2526 0.718251C30.2526 0.718251 32.1307 0.269027 34.1103 0C34.1103 0 41.3944 9.35249 37.8919 44.7701H37.8158C37.8158 45.0493 37.6128 45.0493 37.6128 45.0493ZM79.9972 79.9467V67.0791H76.9516V79.9467H79.9972ZM66.2413 72.2819H74.3375V74.5407H66.2413C66.2413 76.8757 67.2311 77.6879 69.566 77.6879H74.3375V79.9467H69.3884C67.7641 79.9467 66.4189 79.8451 65.0738 78.8553C63.6272 77.7894 62.9165 76.0635 62.9165 73.7286C62.9165 69.2364 64.9723 67.0791 69.4899 67.0791H74.3375V69.3379H69.566C67.4088 69.3379 66.3428 70.3277 66.2413 72.2819ZM43.7547 67.0791L47.0033 76.9772L49.6936 67.0791H53.196L56.267 76.9772L59.3126 67.0791H62.282L57.9674 79.9467H54.3635L51.394 70.3277L48.8053 79.9467H45.2775L40.6076 67.0791H43.7547ZM36.496 67.0791L42.4096 79.9467H39.1863L37.9173 76.8757H31.8515L30.6079 79.9467H27.5116L33.3997 67.0791H36.496ZM32.7906 74.6423H36.9275L34.821 69.6932L32.7906 74.6423ZM17.7403 74.8199C17.7403 77.0534 18.4509 78.0432 20.862 78.0432C23.2985 78.0432 24.0091 77.0534 24.0091 74.8199V67.0791H26.9278V74.8961C26.9278 76.5204 26.7248 77.6879 26.1157 78.3223C24.9736 79.566 23.2985 80.1243 20.862 80.1243C18.4509 80.1243 16.7759 79.566 15.6338 78.3223C14.9739 77.6117 14.8216 76.5204 14.8216 74.8961V67.0791H17.7403V74.8199ZM9.49184 72.2819V67.0791H12.4105V79.9467H9.49184V74.6423H2.96413V79.9467H0.030214V67.0791H2.96413V72.2819H9.49184Z" fill="white"/>
</svg>
